X: 7
T: Lord McDonald's
R: reel
M: 4/4
L: 1/8
K: Amix
c|Aeef ecac|ccac fBBc|Aeef ecac|BcdB cAAe:|
|AAcA BAcA|AAcA BGGe|AAcA BAcA|efed cAAe|
AAcA BAcA|AAcA BGGa|edcB c2 BA|AAAB cAAe||


Tune 507	Setting 13432

